X:1
T:066 - Rei dos Céus
T:Letra: Thomas Kelly (1769-1854)
T:Trad.: James Jackson Taylor (1855-1924)
T:Música: George Coles Stebbins (1846-1945)
M:4/4
L:1/8
Q:1/4=110
K:F
V:1
"F"A3^G A2 F2| c3=B c2 A2| "C7"G3^F G_B A3/2G/2| "F"F6 z2 | A3^G A2 F2| c3=B c2 A2 | "C7"G3^F G_B A3/2G/2| "F"F6 z2 || "Bb"B3A B2 G2| "F"A3^G A2 F2 | "Bb"d3c "(C7)"BA "(G7)"GF| ("C"E4 c2 "C7"_B2) | "F"A3^G A2 F2| c3=B c2 A2| "C7"G3^F G_B A3/2G/2| "F"F6 z2 |]
w: 1.~Eis que che-fe tão glo-rio-so É Je-sus, o bom Se-nhor! Que lu-tou mui vi-to-rio-so Pa-ra ser o Sal-va-dor. Co-ro-ai-o, ó re-mi-dos; Co-ro-ai o Rei dos reis!__ Co-ro-ai-o, ó re-mi-dos; Co-ro-ai o Rei dos reis!
w: 2.~Vin-de to-dos co-ro-á-lo, Que tro-féus bons e-le traz! No po-der en-tro-ni-zá-lo, Prín-ci-pe da nos-sa paz.  
w: 3.~Os ju-deus o re-jei-ta-ram, Es-co-lhen-doum ou-tro rei; An-jos, san-tos, po-tes-ta-des, O-be-de-cem su-a lei.  
w: 4.~Es-cu-tai o gran-dea-plau-so: Tri-un-fou o bom Je-sus; E-le to-ma, pois, seu rei-no,  Co-ro-a-do Rei dos céus!
W: 
W: 
W: 1. Eis que chefe tão glorioso
W: É Jesus, o bom Senhor!
W: Que lutou mui vitorioso
W: Para ser o Salvador.
W: 
W:    (Estribilho)
W:    Coroai-o, ó remidos;
W:    Coroai-o Rei dos reis! (bis)
W: 
W: 2. Vinde todos coroá-lo,
W: Que troféus bons ele traz!
W: No poder entronizá-lo,
W: Príncipe da nossa paz.
W: 
W: 
W: 
W: 3. Os judeus o rejeitaram,
W: Escolhendo um outro rei;
W: Anjos, santos, potestades,
W: Obedecem sua lei.
W: 
W: 4. Escutai o grande aplauso:
W: Triunfou o bom Jesus;
W: Ele toma, pois, seu reino, 
W: Coroado Rei dos céus!
W: 
W: 
W: 





